!!!!SEGMENT: 074-1c-LW-014.krn
!!!COM: Chopin, Fryderyk
!!!OTL: No. 14. The Ring. (Das Ringlein.)
!!!OPS: Op. 74
!!!PTL: 17 | POLISH SONGS
!!!PPR: Stanley Lucas, Weber & Co.
!!!PPP: London
!!!AGN: Song
!!!NIFC-rismID: BRAK
!!!NIFC-shelfmark: PL-Wbfc 6139/n
!!!OMD: MODERATO. M. M. [quarter] = 100.
!!!system-decoration: (s1){(s2,s3)}
**kern	**kern	**dynam	**kern	**text	**dynam
*part2	*part2	*part2	*part1	*	*part1
*staff3	*staff2	*	*staff1	*	*
*	*I"PIANO.	*	*I"	*	*
*clefF4	*clefG2	*	*clefG2	*	*
*k[b-e-a-]	*k[b-e-a-]	*	*k[b-e-a-]	*	*
*E-:	*E-:	*	*E-:	*	*
*M3/4	*M3/4	*	*M3/4	*	*
*MM100	*MM100	*	*MM100	*	*
=1	=1	=1	=1	=1	=1
*	*^	*	*	*	*
!	!	!	!LO:DY:rj	!	!	!
!	!	!	!	!LO:TX:t=P:w źródle brak pustych 4 taktów partii wokalnej; system zawiera tylko pierwsze 4 takty partii fotepianu:problem	!	!
4d 4B- 4E-	(>8ggL	4a-\	mf	2.rdd	.	.
.	8ffJ	.	.	.	.	.
4d 4B- 4E-	4b-	4a-	.	.	.	.
4e- 4B- 4E-	4gg)	4g	.	.	.	.
=2	=2	=2	=2	=2	=2	=2
4d 4c- 4E-	(>8ggL	4a-^<	.	2.rdd	.	.
.	8ffJ	.	.	.	.	.
4d 4B- 4E-	4b-	4a-	.	.	.	.
4e- 4B- 4E-	4gg)	4g	.	.	.	.
=3	=3	=3	=3	=3	=3	=3
4d 4B- 4E-	(>8ggL	4a-	.	2.rdd	.	.
.	8ffJ	.	.	.	.	.
4d 4B- 4E-	4b-	4a-	.	.	.	.
4d 4B- 4E-	4ff)	4a-	.	.	.	.
*	*v	*v	*	*	*	*
=4	=4	=4	=4	=4	=4
*	*	*	*	*	*
2e- 2B- 2E-\	2.ee-\ 2.g\	.	2.rdd	.	.
4EE-/	.	.	.	.	.
!!LO:LB:g=original
=5|	=5|	=5|	=5|	=5|	=5|
*	*	*	*	*	*above
*	*	*	*	*^	*
!	!	!	!LO:TX:t=P:w całej pieśni tekst niemiecki zapisany kursywą:problem	!	!	!
!	!	!	!LO:TX:t=P:w źródle w miejscu myślinków rozdzielających sylaby występują podkreślniki:problem	!	!	!
4r	4r	.	8g	Still,	Noch	<
.	.	.	8a-	me-	seh’	.
!	!	!LO:DY:rj	!	!	!	!
4FF	4f 4c 4A-	p	4cc	-thinks,	ich	[>
.	.	.	.	.	.	.
4FF	4f 4c 4A-	.	8b-L	I	dich	.
.	.	.	8a-\J	.	.	]
=6	=6	=6	=6	=6	=6	=6
4r	4r	.	8g	see	vor	.
.	.	.	8f#X	thee	mir	.
!	!	!	!LO:TX:t=P:w źródle brak myślnika rozdzielającego sylaby w "standing":problem	!	!	!
4C	4e- 4c 4G	.	4g	stan-	ste-	.
4C	4e- 4c 4G	.	4g	-ding,	-hen	.
=7	=7	=7	=7	=7	=7	=7
*	*	*	*	*	*	*
2.F	4r	.	8g	As	in	<
.	.	.	8a-	when	dem	.
.	4f 4c 4A-	.	4cc	first	Kin-	[>
.	.	.	.	.	.	.
.	4f 4c 4A-	.	8b-\L	I	-der-	.
.	.	.	8a-J	.	.	]
=8	=8	=8	=8	=8	=8	=8
2.C/	4r	.	2a-	knew	-kleid-	>
.	.	.	.	.	.	.
.	4e- 4c 4A-	>	.	.	.	.
.	4e- 4c 4G	]	4g	thee;	-chen,	]
=9	=9	=9	=9	=9	=9	=9
2.BB-/	4r	<	8g	When,	da	<
.	.	.	8a-	to	schon	.
.	4f 4d 4A-	.	4cc	be	hab	[
.	.	.	.	.	.	.
.	4f 4d 4A-	.	(>8b-\L	my	ich	>
.	.	.	8a-J)	.	.	]]
!!LO:LB:g=original
=10	=10	=10	=10	=10	=10	=10
2.E-/ 2.EE-/	4r	.	8g	lit-	dich	.
.	.	.	8f#X	-tle	ge-	.
!	!	!	!LO:TX:t=P:w źródle brak myślnika rozdzielającego sylaby w "sweetheart":problem	!	!	!
.	4e- 4B- 4G	.	4g	sweet-	-lie-	.
.	4e- 4B- 4G	.	4g	-heart,	-bet,	.
=11	=11	=11	=11	=11	=11	=11
2.BB-/	4r	.	8g	To	nann-	<
.	.	.	8a-	my	-te	.
.	4f 4d 4A-	.	4cc	breast	dich	[>
.	.	.	.	.	.	.
.	4f 4d 4A-	.	8b-L	.	.	.
.	.	.	8a-J	I	mein	]
=12	=12	=12	=12	=12	=12	=12
2.E-/ 2.EE-/	4r	.	2a-	drew	Bräut-	>
.	4e- 4B- 4G	.	.	.	.	.
.	4e- 4B- 4G	.	4g	thee.	-chen,	]
=13	=13	=13	=13	=13	=13	=13
!	!	!LO:DY:rj	!	!	!	!
2.BBn/	4r	p	4.g	For	ha-	.
.	4f 4d 4G	.	.	.	.	.
.	.	.	8a-	a	-be	.
.	4f 4d 4G	.	8g	fond	dir	.
.	.	.	8f#X	en-	als	.
=14	=14	=14	=14	=14	=14	=14
2.C/	4r	<	8g	-dur-	Lie	.
.	.	.	8f#	-ing	bes-	.
.	4e- 4c 4G	.	4g	tok-	zei-	.
.	4e- 4c 4G	.	4a-	-en,	-chen	.
!!LO:LB:g=original
=15	=15	=15	=15	=15	=15	=15
2.D	4r	.	8an/	I	ei-	.
.	.	.	8b-	a	-nen	.
.	4a- 4f 4B-	.	4dd	ring	Ring	>
.	4a- 4f 4B-	.	8ccL	did	ge-	.
.	.	.	8b-J	.	.	]
=16	=16	=16	=16	=16	=16	=16
2E-	4r	.	2b-	give	-ge-	<
.	4g 4B-	.	.	.	.	.
4GG	4bn 4e- 4Bn	.	4bn	thee;	-ben,	[
=17	=17	=17	=17	=17	=17	=17
2.AA-	4r	.	4.dd	Thou	du	.
.	4e-/ 4c/	>	.	.	.	.
.	.	.	8cc	didst	ge-	>
.	.	.	.	.	.	.
.	4f/ 4c/	.	8b-	vow	-lob-	.
.	.	.	8a-X/	that	-test	]
=18	=18	=18	=18	=18	=18	=18
2.BB- 2.BBB-	4r	.	8a-	thro’	ihn	.
.	.	.	8g	thy	zu	.
.	4g 4e- 4B-	.	4cc	life-	tra-	.
.	4g 4e- 4B-	.	4b-	-time	-gen	.
=19	=19	=19	=19	=19	=19	=19
2.BBB-	4r	.	8cc	It	für	.
.	.	.	8b-	should	dein	.
.	4f 4d 4A-	.	4an	ne-	gan-	.
.	4f 4d 4A-	.	4a-X	-ver	-zes	.
=20	=20	=20	=20	=20	=20	=20
2.EE-	4r	.	2f#X	leave	Le-	<
.	.	.	.	.	.	.
.	4f#X 4e- 4An	<	.	.	.	.
.	4g 4e- 4B-	[	4g	thee,	-ben,	[
!!LO:LB:g=original
=21	=21	=21	=21	=21	=21	=21
2.AA-	4r	.	4.dd	Thou	du	>
.	4g 4Bn	>	.	.	.	.
.	.	.	8cc	didst	ge-	.
.	4a- 4f 4c	.	8b-	vow	-lob-	.
.	.	.	8a-	that	-test	]
=22	=22	=22	=22	=22	=22	=22
2.BB-	4r	.	8a-	thro’	ihn	.
.	.	.	8g	thy	zu	.
.	4g 4e- 4B-X	.	4cc	life-	tra-	.
.	4g 4en 4B-	.	4b-	-time	-gen	.
=23	=23	=23	=23	=23	=23	=23
2.BB- 2.BBB-	4r	.	8cc	It	für	>
.	.	.	8b-	should	dein	.
.	4a- 4f 4B-	.	4a-	ne-	gan-	.
.	4a- 4d 4B-	.	4f	-ver	-zes	]
=24	=24	=24	=24	=24	=24	=24
2BB- 2EE-/	4r	.	4f	leave	Le-	.
.	4e- 4G	.	4e-	thee.	-ben.	.
!	!	!LO:DY:rj	!	!	!	!
4e- 4B- 4E-\	4gg 4g\	mf	4r	.	.	.
*	*	*	*	*v	*v	*
=25	=25	=25	=25	=25	=25
*	*^	*	*	*	*
4d 4B- 4E-	(>8ggL	4a-\	.	2.rdd	.	.
.	8ffJ	.	.	.	.	.
4d 4B- 4E-	4b-	4a-	.	.	.	.
4e- 4B- 4E-	4gg)	4g	.	.	.	.
!!LO:PB:g=original
=26	=26	=26	=26	=26	=26	=26
4d 4c- 4E-	(>8ggL	4a-	.	2.rdd	.	.
.	8ffJ	.	.	.	.	.
4d 4B- 4E-	4b-	4a-	.	.	.	.
4e- 4B- 4E-	4gg)	4g	.	.	.	.
=27	=27	=27	=27	=27	=27	=27
4d 4B- 4E-	(>8ggL	4a-	.	2.rdd	.	.
.	8ffJ	.	.	.	.	.
4d 4B- 4E-	4b-	4a-	.	.	.	.
4d 4B- 4E-	4ff)	4a-	.	.	.	.
*	*v	*v	*	*	*	*
=28	=28	=28	=28	=28	=28
*	*	*	*	*	*
2e- 2B- 2E-\	2.ee- 2.g\	.	2.rdd	.	.
4EE-/	.	.	.	.	.
=29	=29	=29	=29	=29	=29
*	*	*	*	*^	*
4r	4r	.	8g	While	Muss-	<
.	.	.	8a-	thro’	-te	.
!	!	!LO:DY:rj	!	!	!	!
4FF	4f 4c 4A-	p	4cc	dis-	in	[>
.	.	.	.	.	.	.
4FF	4f 4c 4A-	.	8b-L	.	.	.
.	.	.	8a-J	-tant	die	]
=30	=30	=30	=30	=30	=30	=30
!	!	!	!LO:TX:t=P:w źródle brak myślnika rozdzielającego sylaby w "Fremde":problem	!	!	!
4r	4r	.	8g	lands	Frem-	.
!	!	!	!LO:TX:t=P:w źródle brak myślników rozdzielających sylaby w "unfriended":problem	!	!	!
.	.	.	8f#X	un-	-de	.
!	!	!	!LO:TX:t=P:w źródle brak myślnika rozdzielającego sylaby w "wandern":problem	!	!	!
4C	4e- 4c 4G	.	4g	-frien-	wan-	.
4C	4e- 4c 4G	.	4g	-ded	-dern,	.
=31	=31	=31	=31	=31	=31	=31
*	*	*	*	*	*	*
2.F	4r	.	8g	I	und	<
.	.	.	8a-	my	.	.
.	4f 4c 4A-	.	4cc	way	du	.
.	.	.	.	.	.	[>
.	4f 4c 4A-	.	8b-L	have	unter-	.
.	.	.	8a-J	.	.	]]
!!LO:LB:g=original
=32	=32	=32	=32	=32	=32	=32
2.C/	4r	.	2a-	tak-	-des-	>
.	.	.	.	.	.	.
.	4e- 4c	>	.	.	.	.
.	4e- 4c 4G	]	4g	-en,	-sen	]
=33	=33	=33	=33	=33	=33	=33
2.BB-/	4r	<	8g	Both	hast	<
.	.	.	8a-	my	ge-	.
.	4f 4d 4A-	.	4cc	ring	-nom-	[>
.	.	.	.	.	.	.
.	4f 4d 4A-	.	8b-L	and	-men	.
.	.	.	8a-J	.	.	]
=34	=34	=34	=34	=34	=34	=34
2.E- 2.EE-/	4r	.	8g	me	ei-	.
.	.	.	8f#X	for-	-nen	.
!	!	!	!LO:TX:t=P:w źródle brak myślnika rozdzielającego sylaby w "Andern":problem	!	!	!
.	4e- 4B- 4G	.	4g	-gett-	An-	.
.	4e- 4B- 4G	.	4g	-ing,	-dern,	.
=35	=35	=35	=35	=35	=35	=35
2.BB-/	4r	.	8g	Thou	Ring	<
.	.	.	8a-	hast	und	.
.	4f 4d 4A-	.	4cc	me	mich	[>
.	.	.	.	.	.	.
.	4f 4d 4A-	.	8b-L	for-	ver	.
.	.	.	8a-J	.	.	]
=36	=36	=36	=36	=36	=36	=36
2.E-/ 2.EE-/	4r	.	2a-	-sak-	ges-	>
.	4e- 4B- 4G	.	.	.	.	.
.	4e- 4B- 4G	.	4g	-en;	-sen,	]
!!LO:LB:g=original
=37	=37	=37	=37	=37	=37	=37
!	!	!LO:DY:rj	!	!	!	!
2.BBn/	4r	p	4.g	Yet	und	.
.	4f 4d 4G	.	.	.	.	.
.	.	.	8a-	I	doch	.
.	4f 4d 4G	.	8g	can-	kann	.
.	.	.	8f#X	not	ich	.
=38	=38	=38	=38	=38	=38	=38
2.C/	4r	<	8g	choose	mei-	.
.	.	.	8f#	but	-ne	.
.	4e- 4c 4G	.	4g	love	Lie-	.
.	4e- 4c 4G	.	4a-	thee,	-be	.
=39	=39	=39	=39	=39	=39	=39
2.D	4r	.	8an/	Tho’	kei-	.
.	.	.	8b-\	our	-ner	.
.	4a- 4f 4B-	.	4dd	troth	An-	>
.	4a- 4f 4B-	.	8ccL	is	-dern	.
.	.	.	8b-J	.	.	]]
=40	=40	=40	=40	=40	=40	=40
2E-	4r	.	2b-	brok-	schen-	<
.	4g 4B-	.	.	.	.	.
4GG	4bn 4e- 4Bn	.	4bn	-en;	-ken,	[
=41	=41	=41	=41	=41	=41	=41
2.AA-	4r	.	4.dd	I	muss	.
.	4e-/ 4c/	>	.	.	.	.
.	.	.	8cc	re-	an	>
.	4f/ 4c/	.	8b-	-call	dich	.
.	.	.	8a-X/	my	und	]
!!LO:LB:g=original
=42	=42	=42	=42	=42	=42	=42
2.BB- 2.BBB-	4r	.	8a-	girl-	an	.
.	.	.	8g	-ish	das	.
!	!	!	!LO:TX:t=P:w źródle brak myślnika rozdzielającego sylaby w "Ringlein":problem	!	!	!
.	4g 4e- 4B-	.	4cc	sweet-	Ring-	.
.	4g 4e- 4B-	.	4b-	-heart,	-lein,	.
=43	=43	=43	=43	=43	=43	=43
2.BBB-	4r	.	8cc	And	ach,	.
.	.	.	8b-	love’s	noch	.
.	4f 4d 4A-	.	4an	slight-	im-	.
.	4f 4d 4A-	.	4a-X	-ed	-mer	.
=44	=44	=44	=44	=44	=44	=44
2.EE-	4r	.	2f#X	tok-	den-	<
.	4f#X 4e- 4An	<	.	.	.	.
.	4g 4e- 4B-	[	4g	-en,	-ken,	[
=45	=45	=45	=45	=45	=45	=45
2.AA-	4r	.	4.dd	I	muss	>
.	4g 4Bn	>	.	.	.	.
.	.	.	8cc	re-	an	.
.	4a- 4f 4c	.	8b-	-call	dich	.
.	.	.	8a-/	my	und	]
=46	=46	=46	=46	=46	=46	=46
2.BB-	4r	.	8a-	girl-	an	.
.	.	.	8g	-ish	das	.
!	!	!	!LO:TX:t=P:w źródle brak myślnika rozdzielającego sylaby w "sweetheart":problem	!	!	!
!	!	!	!LO:TX:t=P:w źródle brak myślnika rozdzielającego sylaby w "Ringlein":problem	!	!	!
.	4g 4e- 4B-X	.	4cc	sweet-	Ring-	.
.	4g 4en 4B-	.	4b-	-heart,	-lein,	.
!!LO:LB:g=original
=47	=47	=47	=47	=47	=47	=47
2.BB- 2.BBB-/	4r	.	8cc	And	ach,	>
.	.	.	8b-	love’s	noch	.
.	4a- 4f 4B-/	.	4a-	slight-	im-	.
.	4a- 4d 4B-/	.	4f	-ed	-mer	]
=48	=48	=48	=48	=48	=48	=48
2BB-/ 2EE-/	4r	.	4f	tok-	den-	.
.	4e-/ 4G/	.	4e-	-en.	-ken.	.
4e- 4B- 4E-\	4gg 4g\	mf	4r	.	.	.
*	*	*	*	*v	*v	*
=49	=49	=49	=49	=49	=49
*	*^	*	*	*	*
4d 4B- 4E-	(>8ggL	4a-\	.	2.rdd	.	.
.	8ffJ	.	.	.	.	.
4d 4B- 4E-	4b-	4a-	.	.	.	.
4e- 4B- 4E-	4gg)	4g	.	.	.	.
=50	=50	=50	=50	=50	=50	=50
4d 4c- 4E-	(>8ggL	4a-^<	.	2.rdd	.	.
.	8ffJ	.	.	.	.	.
4d 4B- 4E-	4b-	4a-	.	.	.	.
4e- 4B- 4E-	4gg)	4g	.	.	.	.
=51	=51	=51	=51	=51	=51	=51
4d 4B- 4E-	(>8ggL	4a-	.	2.rdd	.	.
.	8ffJ	.	.	.	.	.
4d 4B- 4E-	4b-	4a-	.	.	.	.
4d 4B- 4E-	4ff)	4a-	.	.	.	.
*	*v	*v	*	*	*	*
=52	=52	=52	=52	=52	=52
*	*	*	*	*	*
2e- 2B- 2E-\	2.ee-\ 2.g\	.	2.rdd	.	.
!LO:TX:t=P:w źródle obie kreski końcące utwór są grube:problem	!	!	!	!	!
4EE-/	.	.	.	.	.
==	==	==	==	==	==
*-	*-	*-	*-	*-	*-
!!title: @{OTL}; @{OPS} @{ONM} publisher: @{PPR}
!!!RDF**kern: > = above
!!!RDF**kern: < = below
!!!RDF**dynam: < = "cres:", 'fontstyle="italic"
!!!RDF**dynam: > = "dim:", 'fontstyle="italic"
!!!ENC: Antoni Szymański
!!!END: 2020-02-10
!!!EED: 
!!!EST: 
